X:1
T:Il Etat un Petit Navire
M:3/4
L:1/8
K:G
 BB B| D2 B2| cB B2| AA AA| D2 A2| BA A2| GB BB|
M:2/4
 B2 B2| Bd cB| AA AA| A2 A2| Ac BA| GD GB|
M:3/4
 d3||
